!!! OTL: Berkowitz475
!!! Chapter: 1
!!! Section: IV
!!! Page: 118
!!! Mode: 
!!! Encoder: DJB
**kern
*staff1
*I"Piano
=1-
*clefG2
*k[f#]
*G:
*M4/4
8dd\L
8cc#\
8dd\
8b\J
8ccn\L
8b\
8cc\
8a#\J
=2
8b/L
8a#/
8b/
8g#/J
4an/
8d/
8r
=3
8g/L
8b/J
4ee\
8cc#\L
8dd\J
4a/
=4
8cc/L
8b/
8a/
8g/J
8f#/L
8e/J
4d/
=5
8ee\L
8dd#\
8ee\
8cc#\J
8ddn\L
8cc#\
8dd\
8b\J
=6
!!linebreak:original
8cc\L
8b\
8cc\
8a#\J
4b\
4d/
=7
8c#/L
8e/J
4a/
8e#/L
8f#/J
4dd\
=8
8r
8a#\L
8b\
8dd\J
4g/
4r
==
*-
